icons/svg/copy.svg

<svg width="24" height="24" viewBox="0 0 24 24" fill="none" xmlns="http://www.w3.org/2000/svg">
<path d="M16.8689 5.75C16.8689 4.09315 15.5258 2.75 13.8689 2.75H7.211C5.55415 2.75 4.211 4.09315 4.211 5.75V15.3289C4.211 16.9858 5.55415 18.3289 7.211 18.3289H13.8689C15.5258 18.3289 16.8689 16.9858 16.8689 15.3289V5.75Z" stroke="currentColor" stroke-width="1.5" stroke-linecap="round" stroke-linejoin="round"/>
<path fill-rule="evenodd" clip-rule="evenodd" d="M8.41396 21.7631C7.78377 21.5083 7.25422 21.0646 6.89345 20.5H10.855C12.2323 20.5 13.2286 20.4996 14.0167 20.447C14.7983 20.3948 15.3214 20.2937 15.7577 20.1173C17.0773 19.5838 18.1238 18.5374 18.6573 17.2177C18.8336 16.7815 18.9348 16.2583 18.987 15.4767C19.0396 14.6886 19.04 13.6924 19.04 12.315V9.67105V5.43244C19.5259 5.74295 19.9222 6.17837 20.1857 6.69558C20.3848 7.08632 20.4656 7.50472 20.5034 7.96798C20.54 8.41555 20.54 8.96626 20.54 9.63963L20.54 12.3425C20.54 13.6866 20.54 14.7328 20.4836 15.5767C20.4265 16.4329 20.3089 17.1343 20.0479 17.7799C19.362 19.4766 18.0166 20.822 16.3199 21.5079C15.6743 21.769 14.9729 21.8865 14.1166 21.9437C13.2727 22 12.2266 22 10.8825 22H10.8295C10.2814 22 9.83314 22 9.46683 21.9756C9.0883 21.9503 8.74403 21.8965 8.41396 21.7631Z" fill="currentColor"/>
</svg>

<svg xmlns="http://www.w3.org/2000/svg" width="24" height="24" fill="none" viewBox="0 0 24 24"><path stroke="currentColor" stroke-linecap="round" stroke-linejoin="round" stroke-width="1.5" d="M16.869 5.75a3 3 0 0 0-3-3H7.21a3 3 0 0 0-3 3v9.579a3 3 0 0 0 3 3h6.658a3 3 0 0 0 3-3z"/><path fill="currentColor" fill-rule="evenodd" d="M8.414 21.763a3.25 3.25 0 0 1-1.52-1.263h3.961c1.377 0 2.374 0 3.162-.053.781-.052 1.304-.153 1.74-.33a5.25 5.25 0 0 0 2.9-2.9c.177-.435.278-.959.33-1.74.053-.788.053-1.785.053-3.162V5.432c.486.311.882.746 1.146 1.264.199.39.28.809.317 1.272.037.448.037.998.037 1.672v2.702c0 1.345 0 2.39-.056 3.235-.058.856-.175 1.557-.436 2.203a6.75 6.75 0 0 1-3.728 3.728c-.646.261-1.347.379-2.203.436-.844.056-1.89.056-3.235.056h-.053c-.548 0-.996 0-1.362-.024-.379-.026-.723-.08-1.053-.213" clip-rule="evenodd"/></svg>
